Obsidian-SemiLight/actions/22s/escape-direction-right.svg

<svg viewBox="0 0 22 22" xmlns="http://www.w3.org/2000/svg"><path d="m3 3v16h16v-16zm1 1h14v14h-14z" fill="#4d4d4d"/><path d="m13 10v2h5v-2z" fill="#da4453"/><path d="m11 8c-1.65686 0-3 1.3431-3 3s1.34314 3 3 3 3-1.3431 3-3-1.34314-3-3-3zm0 2c.55228 0 1 .4477 1 1s-.44772 1-1 1-1-.4477-1-1 .44772-1 1-1z" fill="#3daee9"/></svg>

<svg xmlns="http://www.w3.org/2000/svg" viewBox="0 0 22 22">
  <defs id="defs3051">
    <style type="text/css" id="current-color-scheme">
      .ColorScheme-Text {
        color:#4d4d4d;
      }
      .ColorScheme-Highlight {
        color:#3daee9;
      }
      </style>
  </defs>
 <path 
     style="fill:currentColor;fill-opacity:1;stroke:none" 
     d="M 3 3 L 3 19 L 19 19 L 19 3 L 3 3 z M 4 4 L 18 4 L 18 18 L 4 18 L 4 4 z "
     class="ColorScheme-Text"
     />
 <path 
     style="fill:#da4453;fill-opacity:1;stroke:none" 
     d="M 13 10 L 13 12 L 18 12 L 18 10 L 13 10 z "
     class="ColorScheme-Highlight"
     /> 
 <path 
     style="fill:currentColor;fill-opacity:1;stroke:none" 
     d="M 11 8 C 9.34314 8 8 9.3431 8 11 C 8 12.6569 9.34314 14 11 14 C 12.65686 14 14 12.6569 14 11 C 14 9.3431 12.65686 8 11 8 z M 11 10 C 11.55228 10 12 10.4477 12 11 C 12 11.5523 11.55228 12 11 12 C 10.44772 12 10 11.5523 10 11 C 10 10.4477 10.44772 10 11 10 z "
     class="ColorScheme-Highlight"
     />
</svg>
